!!!OTL: Hongtaiyang zhaoliangle liujiaxia
!!!ARE: Asia, China,ÿGansu Linxia
!! I, 107
!!!SCT: C2017
!!!YEM: Copyright 1995, estate of Helmut Schaffrath.
**kern
*ICvox
*Ivox
!! Mixed meters:  4/4; 6/4
*M6/4
*k[b-e-]
*B-:
{8ccc
8ccc
8ccc
8fff
8ccc
8bb-
8gg
8ff
=1
8gg
8bb-
8bb-
8ccc
2.ccc
4gg}
=2
*M4/4
{8.ccc
16bb-
8gg
8bb-
8.ccc
16bb-
8gg
8b-
=3
4ccc
4ccc
4fff
4ggg
=4
2fff
4fff
4r}
=5
{4bb-
8gg
8bb-
4ccc
4fff
=6
8ccc
8bb-
8bb-
8gg
4gg}
{8ff
8gg
=7
8ccc
4gg
8bb-
4gg
8gg
8ff
=8
2ff
4ff
4r}
=9
{4bb-
8gg
8bb-
4ccc
4fff
=10
8ccc
8bb-
8bb-
8gg
4gg}
{8ff
8gg
=11
8bb-
4gg
8bb-
4gg
8gg
8ff
=12
1ff
=13
4ff
2.r}
==
!!!AGN: Shange, Huar, Sanlaqiang
!! Han Hui
!!!ONB: ESAC (Essen Associative Code) Database: SENGANSU
!!!AMT: irregular
!!!AIN: vox
!!!EED: Helmut Schaffrath
!!!EEV: 1.0
*-
